common/svg/performance-icon.svg

<svg fill="none" height="22" viewBox="0 0 20 22" width="20" xmlns="http://www.w3.org/2000/svg"><g fill="#000"><path clip-rule="evenodd" d="m8.61984 9.94771-.00202-.00207 8.71548-4.95215-4.9844 8.76921-.0019-.002c-.4833.7894-1.3536 1.3161-2.34702 1.3161-1.51878 0-2.75-1.2312-2.75-2.75 0-1.0157.55072-1.9029 1.36986-2.37909z" fill-rule="evenodd"/><path d="m9.99998 3.16016c1.75992 0 3.40402.49597 4.80012 1.35576l-1.7134.97354c-.9414-.42568-1.9864-.66264-3.08672-.66264-4.14214 0-7.5 3.35787-7.5 7.49998 0 1.6943.56179 3.2573 1.50926 4.5131h-1.98984c-.75504-1.3323-1.186087-2.8724-1.186087-4.5131 0-5.06259 4.104057-9.16664 9.166667-9.16664z"/><path d="m9.97607 21.4935h.02391.02392z"/><path d="m17.9806 16.8399c.755-1.3323 1.186-2.8724 1.186-4.5131 0-1.76-.496-3.40423-1.3559-4.8004l-.9737 1.71299c.4259.94161.663 1.98681.663 3.08741 0 1.6943-.5618 3.2573-1.5093 4.5131z"/></g></svg>

<svg width="20" height="22" viewBox="0 0 20 22" fill="none" xmlns="http://www.w3.org/2000/svg">
<path fill-rule="evenodd" clip-rule="evenodd" d="M8.61984 9.94771L8.61782 9.94564L17.3333 4.99349L12.3489 13.7627L12.347 13.7607C11.8637 14.5501 10.9934 15.0768 9.99998 15.0768C8.4812 15.0768 7.24998 13.8456 7.24998 12.3268C7.24998 11.3111 7.8007 10.4239 8.61984 9.94771Z" fill="black"/>
<path d="M9.99998 3.16016C11.7599 3.16016 13.404 3.65613 14.8001 4.51592L13.0867 5.48946C12.1453 5.06378 11.1003 4.82682 9.99998 4.82682C5.85784 4.82682 2.49998 8.18469 2.49998 12.3268C2.49998 14.0211 3.06177 15.5841 4.00924 16.8399H2.0194C1.26436 15.5076 0.833313 13.9675 0.833313 12.3268C0.833313 7.26421 4.93737 3.16016 9.99998 3.16016Z" fill="black"/>
<path d="M9.97607 21.4935C9.98404 21.4935 9.99201 21.4935 9.99998 21.4935C10.008 21.4935 10.0159 21.4935 10.0239 21.4935H9.97607Z" fill="black"/>
<path d="M17.9806 16.8399C18.7356 15.5076 19.1666 13.9675 19.1666 12.3268C19.1666 10.5668 18.6706 8.92257 17.8107 7.5264L16.837 9.23939C17.2629 10.181 17.5 11.2262 17.5 12.3268C17.5 14.0211 16.9382 15.5841 15.9907 16.8399H17.9806Z" fill="black"/>
</svg>
